modules/feathericon/icons/vr.svg

<?xml version="1.0" encoding="UTF-8"?>
<svg width="24px" height="24px" viewBox="0 0 24 24" version="1.1" xmlns="http://www.w3.org/2000/svg" xmlns:xlink="http://www.w3.org/1999/xlink">
    <!-- Generator: sketchtool 52.2 (67145) - http://www.bohemiancoding.com/sketch -->
    <title>vr</title>
    <desc>Created with sketchtool.</desc>
    <g id="devices" stroke="none" stroke-width="1" fill="none" fill-rule="evenodd">
        <g id="vr" fill="#000000" fill-rule="nonzero">
            <path d="M15,17 L13,15 L11,15 L9,17 L7,17 C5.8954305,17 5,16.1045695 5,15 L5,9 C5,7.8954305 5.8954305,7 7,7 L17,7 C18.1045695,7 19,7.8954305 19,9 L19,15 C19,16.1045695 18.1045695,17 17,17 L15,17 Z M22,14 C22,14.5522847 21.5522847,15 21,15 C20.4477153,15 20,14.5522847 20,14 L20,10 C20,9.44771525 20.4477153,9 21,9 C21.5522847,9 22,9.44771525 22,10 L22,14 Z M4,14 C4,14.5522847 3.55228475,15 3,15 C2.44771525,15 2,14.5522847 2,14 L2,10 C2,9.44771525 2.44771525,9 3,9 C3.55228475,9 4,9.44771525 4,10 L4,14 Z" id="Shape"></path>
        </g>
    </g>
</svg>

<svg width="24" height="24" viewBox="0 0 24 24" xmlns="http://www.w3.org/2000/svg"><path d="M15 17l-2-2h-2l-2 2H7a2 2 0 0 1-2-2V9a2 2 0 0 1 2-2h10a2 2 0 0 1 2 2v6a2 2 0 0 1-2 2h-2zm7-3a1 1 0 0 1-2 0v-4a1 1 0 0 1 2 0v4zM4 14a1 1 0 0 1-2 0v-4a1 1 0 1 1 2 0v4z" fill="#000" fill-rule="nonzero"/></svg>
